!!!OTL: Kajobi
!!!ONR: No. 4
!! From Jaap Kunst "Music in New Guinea; Three Studies"
!! Verhandelingen van het Koninkluijk Instituut voor Taal-,
!! Land- end Volkenkunde, Deel 53
!! English translation and correction by Jeune Scott-Kemball
!! Publication Place: 'S-Gravenhage
!! Publisher: Martinus Nijhoff, 1967
!! From Chapter II: Songs of New Guinea, page 88
!!PLACE: Pacifica, New Guinea, Yape\n, Seriu (village)
!!SINGER: Aitai
!!!PSX: M
!!!ENCODER: D. Huron
**kern
*clefF4
*k[]
*MX
*>2nd or 3rd strophe
8f
=1
4f
16f
(16d-
=2
4c)
16d-
16d-
=3
4c
8A
=4
(4.f
=5
8D-)
8r
8c
=6
4c
16.d-
16.d-
16.d-
16.d-
=7
4A
16.G
16.A
16.F
16.F
=8
16.F
16.D-
24A
24A
24A
4A
=9|!
*>another strophe
16d-
16d-
=10
4d-
16d-
16d-
=11
4f
16f
16f
=12
4d
8c
8A
=13
4F
[8D-
=14
8D-
8r
16c
16c
=15
4c
16d-
16d-
=16
qd
4c
16A
16A
=17
qA
4F
16F
16F
=18
16.F
16.D-
16F
16F
=19
[4.F
=20
4F]
==|!
*-
